assets/svg/services/forkids.svg

<?xml version="1.0" encoding="utf-8"?>
<!-- Generator: Adobe Illustrator 24.1.1, SVG Export Plug-In . SVG Version: 6.00 Build 0)  -->
<svg version="1.1" id="Слой_1" xmlns="http://www.w3.org/2000/svg" xmlns:xlink="http://www.w3.org/1999/xlink" x="0px" y="0px"
	 viewBox="0 0 73 73" style="enable-background:new 0 0 73 73;" xml:space="preserve">
<style type="text/css">
	.st0{fill:#B27A78;}
</style>
<g>
	<g>
		<path class="st0" d="M33.79,33c0,0.83,0.81,1.5,1.92,1.65v0.47c-0.67-0.07-1.33-0.29-1.9-0.67l-0.24-0.16l-0.53,0.8l0.24,0.16
			c0.86,0.58,1.87,0.88,2.91,0.88s2.05-0.3,2.91-0.88l0.24-0.16l-0.53-0.8l-0.24,0.16c-0.57,0.38-1.23,0.6-1.9,0.67v-0.47
			c1.11-0.15,1.92-0.82,1.92-1.65c0-0.94-1.06-1.68-2.41-1.68C34.85,31.32,33.79,32.06,33.79,33z M36.2,32.28
			c0.83,0,1.44,0.38,1.44,0.72c0,0.34-0.62,0.72-1.44,0.72c-0.83,0-1.44-0.38-1.44-0.72C34.75,32.66,35.37,32.28,36.2,32.28z"/>
	</g>
	<g>
		<ellipse class="st0" cx="33.31" cy="29.87" rx="0.96" ry="1.44"/>
	</g>
	<g>
		<ellipse class="st0" cx="39.08" cy="29.87" rx="0.96" ry="1.44"/>
	</g>
	<g>
		<path class="st0" d="M47.74,41.9c-0.4,0-0.79,0.11-1.15,0.3c-0.7-2.08-1.98-3.88-3.72-5.24l-1.08-0.84
			c1.33-1.19,2.1-2.85,2.1-4.81c0-0.51-0.05-1.02-0.15-1.53c1.74-0.38,3.03-1.93,3.03-3.76c0-2.12-1.73-3.85-3.85-3.85
			c-1.25,0-2.4,0.6-3.12,1.59c-1.07-0.69-2.29-1.11-3.62-1.11s-2.55,0.42-3.62,1.11c-0.72-0.99-1.87-1.59-3.12-1.59
			c-2.12,0-3.85,1.73-3.85,3.85c0,1.83,1.3,3.38,3.03,3.76c-0.1,0.51-0.15,1.03-0.15,1.53c0,1.96,0.77,3.62,2.1,4.81l-1.08,0.84
			c-1.74,1.36-3.02,3.16-3.72,5.24c-0.36-0.2-0.75-0.3-1.15-0.3c-1.89,0-3.37,2.22-3.37,5.05c0,2.83,1.48,5.05,3.41,5.05h0
			l0.69-0.07c2.7-0.27,5.29-1.23,7.52-2.77c0.94,0.29,2.03,0.44,3.28,0.44s2.35-0.15,3.28-0.44c2.23,1.54,4.82,2.5,7.52,2.77
			L47.74,52c1.89,0,3.37-2.22,3.37-5.05C51.11,44.12,49.63,41.9,47.74,41.9z M42.28,37.72c1.68,1.31,2.89,3.07,3.51,5.11
			c-0.48,0.51-0.86,1.2-1.11,2.03l-1.3-0.43c0.03-0.27,0.05-0.55,0.05-0.84c0-2.46-1-4.95-2.66-6.7c0.08-0.05,0.16-0.1,0.24-0.15
			L42.28,37.72z M42.93,23.14c1.59,0,2.89,1.29,2.89,2.89c0,1.38-0.99,2.55-2.31,2.82c-0.52-1.73-1.55-3.36-2.92-4.51
			C41.13,23.59,41.99,23.14,42.93,23.14z M26.58,26.03c0-1.59,1.29-2.89,2.89-2.89c0.94,0,1.8,0.45,2.34,1.2
			c-1.38,1.15-2.4,2.79-2.92,4.51C27.56,28.58,26.58,27.41,26.58,26.03z M29.46,31.32c0-3.56,2.94-7.7,6.73-7.7s6.73,4.14,6.73,7.7
			c0,3.99-3.38,5.77-6.73,5.77S29.46,35.3,29.46,31.32z M30.12,37.72l1.28-1c0.08,0.05,0.16,0.11,0.24,0.15
			c-1.65,1.75-2.66,4.25-2.66,6.7c0,0.29,0.02,0.57,0.05,0.84l-1.3,0.43c-0.25-0.83-0.63-1.52-1.11-2.03
			C27.23,40.8,28.43,39.03,30.12,37.72z M22.25,46.95c0-0.4,0.04-0.78,0.1-1.14c1.31,0.27,2.3,1.43,2.3,2.83v2.41
			C23.35,51.04,22.25,49.17,22.25,46.95z M25.61,50.93v-2.3c0-1.84-1.3-3.38-3.02-3.76c0.43-1.19,1.2-2.02,2.06-2.02
			c0.99,0,1.92,1.12,2.26,2.72c0.03,0.13,0.11,0.25,0.23,0.32c0.12,0.07,0.26,0.08,0.39,0.04l1.66-0.55
			c0.38,1.52,1.26,2.64,2.63,3.34C29.95,49.91,27.82,50.66,25.61,50.93z M29.94,43.58c0-2.31,1-4.66,2.6-6.24
			c1.06,0.45,2.29,0.71,3.65,0.71c1.36,0,2.59-0.25,3.65-0.71c1.61,1.57,2.6,3.92,2.6,6.24c0,3.4-2.05,5.05-6.25,5.05
			S29.94,46.98,29.94,43.58z M43.2,45.38l1.66,0.55c0.13,0.04,0.27,0.03,0.39-0.04s0.2-0.18,0.23-0.32c0.34-1.6,1.27-2.72,2.26-2.72
			c0.86,0,1.63,0.82,2.06,2.02c-1.72,0.38-3.02,1.92-3.02,3.76v2.3c-2.21-0.27-4.33-1.02-6.21-2.21
			C41.94,48.02,42.82,46.9,43.2,45.38L43.2,45.38z M47.79,51.04l-0.05,0v-2.4c0-1.39,0.99-2.56,2.3-2.83
			c0.06,0.36,0.1,0.75,0.1,1.14C50.14,49.17,49.04,51.04,47.79,51.04z"/>
	</g>
	<g>
		<path class="st0" d="M36.2,41.9c-2.43,0-4.33,1.27-4.33,2.89s1.9,2.89,4.33,2.89s4.33-1.27,4.33-2.89S38.62,41.9,36.2,41.9z
			 M36.2,46.71c-1.82,0-3.37-0.88-3.37-1.92c0-1.04,1.54-1.92,3.37-1.92s3.37,0.88,3.37,1.92C39.56,45.83,38.02,46.71,36.2,46.71z"
			/>
	</g>
</g>
</svg>

<svg width="73" height="73" viewBox="0 0 73 73" fill="none" xmlns="http://www.w3.org/2000/svg">
<path fill-rule="evenodd" clip-rule="evenodd" d="M47.74 41.9C47.34 41.9 46.95 42.01 46.59 42.2C45.89 40.12 44.61 38.32 42.87 36.96L41.79 36.12C43.12 34.93 43.89 33.27 43.89 31.31C43.89 30.8 43.84 30.29 43.74 29.78C45.48 29.4 46.77 27.85 46.77 26.02C46.77 23.9 45.04 22.17 42.92 22.17C41.67 22.17 40.52 22.77 39.8 23.76C38.73 23.07 37.51 22.65 36.18 22.65C34.85 22.65 33.63 23.07 32.56 23.76C31.84 22.77 30.69 22.17 29.44 22.17C27.32 22.17 25.59 23.9 25.59 26.02C25.59 27.85 26.89 29.4 28.62 29.78C28.52 30.29 28.47 30.81 28.47 31.31C28.47 33.27 29.24 34.93 30.57 36.12L29.49 36.96C27.75 38.32 26.47 40.12 25.77 42.2C25.41 42 25.02 41.9 24.62 41.9C22.73 41.9 21.25 44.12 21.25 46.95C21.25 49.78 22.73 52 24.66 52L25.35 51.93C28.05 51.66 30.64 50.7 32.87 49.16C33.81 49.45 34.9 49.6 36.15 49.6C37.4 49.6 38.5 49.45 39.43 49.16C41.66 50.7 44.25 51.66 46.95 51.93L47.74 52C49.63 52 51.11 49.78 51.11 46.95C51.11 44.12 49.63 41.9 47.74 41.9ZM42.28 37.72C43.96 39.03 45.17 40.79 45.79 42.83C45.31 43.34 44.93 44.03 44.68 44.86L43.38 44.43C43.41 44.16 43.43 43.88 43.43 43.59C43.43 41.13 42.43 38.64 40.77 36.89L41.01 36.74L42.28 37.72ZM42.93 23.14C44.52 23.14 45.82 24.43 45.82 26.03C45.82 27.41 44.83 28.58 43.51 28.85C42.99 27.12 41.96 25.49 40.59 24.34C41.13 23.59 41.99 23.14 42.93 23.14ZM26.58 26.03C26.58 24.44 27.87 23.14 29.47 23.14C30.41 23.14 31.27 23.59 31.81 24.34C30.43 25.49 29.41 27.13 28.89 28.85C27.56 28.58 26.58 27.41 26.58 26.03ZM29.46 31.32C29.46 27.76 32.4 23.62 36.19 23.62C39.98 23.62 42.92 27.76 42.92 31.32C42.92 35.31 39.54 37.09 36.19 37.09C32.84 37.09 29.46 35.3 29.46 31.32ZM30.12 37.72L31.4 36.72C31.4267 36.7367 31.4533 36.7544 31.48 36.7722C31.5333 36.8078 31.5867 36.8433 31.64 36.87C29.99 38.62 28.98 41.12 28.98 43.57C28.98 43.86 29 44.14 29.03 44.41L27.73 44.84C27.48 44.01 27.1 43.32 26.62 42.81C27.23 40.8 28.43 39.03 30.12 37.72ZM22.25 46.95C22.25 46.55 22.29 46.17 22.35 45.81C23.66 46.08 24.65 47.24 24.65 48.64V51.05C23.35 51.04 22.25 49.17 22.25 46.95ZM25.61 50.93V48.63C25.61 46.79 24.31 45.25 22.59 44.87C23.02 43.68 23.79 42.85 24.65 42.85C25.64 42.85 26.57 43.97 26.91 45.57C26.94 45.7 27.02 45.82 27.14 45.89C27.26 45.96 27.4 45.97 27.53 45.93L29.19 45.38C29.57 46.9 30.45 48.02 31.82 48.72C29.95 49.91 27.82 50.66 25.61 50.93ZM29.94 43.58C29.94 41.27 30.94 38.92 32.54 37.34C33.6 37.79 34.83 38.05 36.19 38.05C37.55 38.05 38.78 37.8 39.84 37.34C41.45 38.91 42.44 41.26 42.44 43.58C42.44 46.98 40.39 48.63 36.19 48.63C31.99 48.63 29.94 46.98 29.94 43.58ZM43.2 45.38L44.86 45.93C44.99 45.97 45.13 45.96 45.25 45.89C45.37 45.82 45.45 45.71 45.48 45.57C45.82 43.97 46.75 42.85 47.74 42.85C48.6 42.85 49.37 43.67 49.8 44.87C48.08 45.25 46.78 46.79 46.78 48.63V50.93C44.57 50.66 42.45 49.91 40.57 48.72C41.94 48.02 42.82 46.9 43.2 45.38ZM47.79 51.04H47.74V48.64C47.74 47.25 48.73 46.08 50.04 45.81C50.1 46.17 50.14 46.56 50.14 46.95C50.14 49.17 49.04 51.04 47.79 51.04ZM33.31 31.31C33.8402 31.31 34.27 30.6653 34.27 29.87C34.27 29.0747 33.8402 28.43 33.31 28.43C32.7798 28.43 32.35 29.0747 32.35 29.87C32.35 30.6653 32.7798 31.31 33.31 31.31ZM33.79 33C33.79 33.83 34.6 34.5 35.71 34.65V35.12C35.04 35.05 34.38 34.83 33.81 34.45L33.57 34.29L33.04 35.09L33.28 35.25C34.14 35.83 35.15 36.13 36.19 36.13C37.23 36.13 38.24 35.83 39.1 35.25L39.34 35.09L38.81 34.29L38.57 34.45C38 34.83 37.34 35.05 36.67 35.12V34.65C37.78 34.5 38.59 33.83 38.59 33C38.59 32.06 37.53 31.32 36.18 31.32C34.85 31.32 33.79 32.06 33.79 33ZM36.2 32.28C37.03 32.28 37.64 32.66 37.64 33C37.64 33.34 37.02 33.72 36.2 33.72C35.37 33.72 34.76 33.34 34.76 33C34.75 32.66 35.37 32.28 36.2 32.28ZM40.04 29.87C40.04 30.6653 39.6102 31.31 39.08 31.31C38.5498 31.31 38.12 30.6653 38.12 29.87C38.12 29.0747 38.5498 28.43 39.08 28.43C39.6102 28.43 40.04 29.0747 40.04 29.87ZM31.87 44.79C31.87 43.17 33.77 41.9 36.2 41.9C38.62 41.9 40.53 43.17 40.53 44.79C40.53 46.41 38.63 47.68 36.2 47.68C33.77 47.68 31.87 46.41 31.87 44.79ZM32.83 44.79C32.83 45.83 34.38 46.71 36.2 46.71C38.02 46.71 39.56 45.83 39.57 44.79C39.57 43.75 38.03 42.87 36.2 42.87C34.37 42.87 32.83 43.75 32.83 44.79Z" fill="currentColor"/>
</svg>
